X:1
T:Road To Glencar, The
S:Shantalla #1 Trk. 13
Z:Ed Wosika <wosikae:sbcglobal.net> 2004-6-26
M:6/8
L:1/8
K:Edor
| "Em"GFE "D"FED| "Em"E2F/E/ EFA| B2c/B/ AGE| "C"GFE "Dm"DEF|
  "Em"GFE "D"FED| "Em"E2F/E/ ABd| "C"edB "D"AFD| FED "Em"E2z:|
| "Em"Bee efe| eBc "D"def| "Em"edB dBA| BGE "D"FED|
  "Em"BAB e2f| edB "D"ABd| "Em"edB "C"=cBG| "D"FED "Em"E2z :|
